assets/camera-slash/camera-slash-duotone.svg

<svg id="Raw" xmlns="http://www.w3.org/2000/svg" viewBox="0 0 256 256">
  <rect width="256" height="256" fill="none"/>
  <path d="M208.00244,64.00684H175.99658l-16-24h-64l-16,24H48.00244a16,16,0,0,0-16,16v112a16,16,0,0,0,16,16h160a16,16,0,0,0,16-16v-112A16,16,0,0,0,208.00244,64.00684Zm-80,104a36,36,0,1,1,36-36A36,36,0,0,1,128.00244,168.00684Z" opacity="0.2"/>
  <line x1="33.45455" y1="24" x2="222.54545" y2="232" fill="none" stroke="#000" stroke-linecap="round" stroke-linejoin="round" stroke-width="16"/>
  <path d="M93.98553,43.01291,95.99414,40h64l16,24H208a16,16,0,0,1,16,16V186.02889" fill="none" stroke="#000" stroke-linecap="round" stroke-linejoin="round" stroke-width="16"/>
  <path d="M200.72725,208H48a16,16,0,0,1-16-16V80A16,16,0,0,1,48,64H69.8181" fill="none" stroke="#000" stroke-linecap="round" stroke-linejoin="round" stroke-width="16"/>
  <path d="M154.13957,156.75336a36.00072,36.00072,0,1,1-48.298-53.128" fill="none" stroke="#000" stroke-linecap="round" stroke-linejoin="round" stroke-width="16"/>
</svg>

<svg xmlns="http://www.w3.org/2000/svg" viewBox="0 0 256 256"><rect width="256" height="256" fill="none"/><path d="M208,64H176L160,40H96L80,64H48A16,16,0,0,0,32,80V192a16,16,0,0,0,16,16H208a16,16,0,0,0,16-16V80A16,16,0,0,0,208,64ZM128,168a36,36,0,1,1,36-36A36,36,0,0,1,128,168Z" opacity="0.2"/><line x1="33.5" y1="24" x2="222.5" y2="232" fill="none" stroke="#000" stroke-linecap="round" stroke-linejoin="round" stroke-width="16"/><path d="M94,43l2-3h64l16,24h32a16,16,0,0,1,16,16V186" fill="none" stroke="#000" stroke-linecap="round" stroke-linejoin="round" stroke-width="16"/><path d="M200.7,208H48a16,16,0,0,1-16-16V80A16,16,0,0,1,48,64H69.8" fill="none" stroke="#000" stroke-linecap="round" stroke-linejoin="round" stroke-width="16"/><path d="M154.1,156.8a36,36,0,1,1-48.3-53.2" fill="none" stroke="#000" stroke-linecap="round" stroke-linejoin="round" stroke-width="16"/></svg>
